X:21
T:Aimée Gagnon
Z:robin.beech@mcgill.ca
R:reel
M:4/4
L:1/8
K:G
B,DGA BGDC | B,DGA BAAG | FGAB cAFD | GABG D2DC |
B,DGA BGDC | B,DGA BAAG | FGAB cAFD |1 GBAF G2DC :|2 GBAF G2Bd |:
g2g2 Bdgd | Bcde dBAG | FGAB cAFA | GABc d2Bd |
g2g2 Bdgd | Bcde dBAG | FGAB cAFA | GBAF G2 Bd :|
